X: 16910
T: Haunted Jukebox, The
R: slip jig
M: 9/8
K: Edorian
|:E2E EFG Bcd|EEE dEc efe|
E2E EFG Bcd|1 ccc dcB AGF:|2 c2 c cAB cde||
fdd fda gec|f2f fed cde|
fdd fda gec|1 g2g ged cde:|2 gag gec d3||

